dist/svgs/file-log-full.svg

<!-- Generated by IcoMoon.io -->
<svg version="1.1" xmlns="http://www.w3.org/2000/svg" width="24" height="24" viewBox="0 0 24 24">
<title>file-log-full</title>
<path d="M23 22h-2v-20h-17v-2h18c0.552 0 1 0.448 1 1v21z"></path>
<path d="M18 4h-16c-0.552 0-1 0.448-1 1v18c0 0.552 0.448 1 1 1h16c0.552 0 1-0.448 1-1v-18c0-0.552-0.448-1-1-1zM11 19h-6v-2h6v2zM15 15h-10v-2h10v2zM15 11h-10v-2h10v2z"></path>
</svg>

<svg xmlns="http://www.w3.org/2000/svg" width="24" height="24"><path d="M23 22h-2V2H4V0h18a1 1 0 0 1 1 1v21z"/><path d="M18 4H2a1 1 0 0 0-1 1v18a1 1 0 0 0 1 1h16a1 1 0 0 0 1-1V5a1 1 0 0 0-1-1zm-7 15H5v-2h6v2zm4-4H5v-2h10v2zm0-4H5V9h10v2z"/></svg>
